icons/ticket.svg

<?xml version="1.0" encoding="UTF-8"?><svg id="uuid-2d2f5bd1-5b6b-4120-9c6b-de0858ce5498" xmlns="http://www.w3.org/2000/svg" viewBox="0 0 50 50"><polygon points="10.82 28.44 10.82 21.72 13.25 21.72 13.25 20.9 7.42 20.9 7.42 21.72 9.84 21.72 9.84 28.44 10.82 28.44"/><rect x="14.44" y="20.9" width=".99" height="7.53"/><path d="M48.35,16.52c-2.12,0-3.85-1.73-3.85-3.85,0-.29-.23-.52-.52-.52H5.56c-.29,0-.52,.23-.52,.52,0,2.12-1.73,3.85-3.85,3.85-.29,0-.52,.23-.52,.52v15.46c0,.29,.23,.52,.52,.52,2.12,0,3.85,1.73,3.85,3.85,0,.29,.23,.52,.52,.52H43.98c.29,0,.52-.23,.52-.52,0-2.12,1.73-3.85,3.85-3.85,.29,0,.52-.23,.52-.52v-15.46c0-.29-.23-.52-.52-.52Zm-.52,15.48c-2.28,.24-4.1,2.06-4.34,4.34H6.05c-.24-2.28-2.06-4.1-4.34-4.34v-14.47c2.28-.24,4.1-2.06,4.34-4.34H43.49c.24,2.28,2.06,4.1,4.34,4.34v14.47Z"/><path d="M41.99,17.3H7.55c-.29,0-.52,.23-.52,.52s.23,.52,.52,.52H41.99c.29,0,.52-.23,.52-.52s-.23-.52-.52-.52Z"/><path d="M41.99,31H7.55c-.29,0-.52,.23-.52,.52s.23,.52,.52,.52H41.99c.29,0,.52-.23,.52-.52s-.23-.52-.52-.52Z"/><path d="M18.53,22.32c.36-.47,.86-.7,1.49-.7,.52,0,.92,.13,1.21,.4s.48,.71,.56,1.31h1c-.08-.79-.36-1.41-.84-1.85-.48-.45-1.13-.67-1.93-.67-.6,0-1.13,.14-1.59,.43-.46,.28-.81,.69-1.06,1.22-.25,.53-.37,1.15-.37,1.85v.72c0,1.07,.27,1.92,.8,2.56,.54,.64,1.25,.96,2.14,.96,.82,0,1.48-.22,1.97-.65,.5-.43,.79-1.05,.88-1.84h-1c-.1,.62-.29,1.06-.59,1.31-.3,.25-.72,.38-1.27,.38-.61,0-1.09-.24-1.43-.73-.34-.48-.51-1.13-.51-1.95v-.73c0-.87,.18-1.53,.54-2Z"/><polygon points="24.14 20.9 24.14 28.44 25.14 28.44 25.14 25.89 26.06 24.93 28.73 28.44 29.92 28.44 26.72 24.23 29.68 20.9 28.48 20.9 25.14 24.63 25.14 20.9 24.14 20.9"/><polygon points="35.52 21.72 35.52 20.9 30.79 20.9 30.79 28.44 35.57 28.44 35.57 27.63 31.78 27.63 31.78 24.96 35.05 24.96 35.05 24.14 31.78 24.14 31.78 21.72 35.52 21.72"/><polygon points="39.7 28.44 39.7 21.72 42.12 21.72 42.12 20.9 36.29 20.9 36.29 21.72 38.71 21.72 38.71 28.44 39.7 28.44"/></svg>

<svg id="bfb8b0bc-d453-4ef5-a70d-47cff22a28e5" data-name="ICONS" xmlns="http://www.w3.org/2000/svg" viewBox="0 0 50 50"><polygon points="10.82 28.44 10.82 21.72 13.25 21.72 13.25 20.9 7.42 20.9 7.42 21.72 9.84 21.72 9.84 28.44 10.82 28.44"/><rect x="14.44" y="20.9" width="0.99" height="7.53"/><path d="M48.35,16.52a3.85,3.85,0,0,1-3.85-3.85.52.52,0,0,0-.52-.52H5.56a.52.52,0,0,0-.52.52,3.85,3.85,0,0,1-3.85,3.85A.52.52,0,0,0,.67,17V32.5a.52.52,0,0,0,.52.52A3.85,3.85,0,0,1,5,36.86a.52.52,0,0,0,.52.52H44a.52.52,0,0,0,.52-.52A3.85,3.85,0,0,1,48.35,33a.53.53,0,0,0,.52-.52V17A.52.52,0,0,0,48.35,16.52ZM47.83,32a4.88,4.88,0,0,0-4.34,4.34H6.05A4.88,4.88,0,0,0,1.71,32V17.53a4.89,4.89,0,0,0,4.34-4.34H43.49a4.89,4.89,0,0,0,4.34,4.34Z"/><path d="M42,17.3H7.55a.52.52,0,1,0,0,1H42a.52.52,0,1,0,0-1Z"/><path d="M42,31H7.55a.52.52,0,0,0,0,1H42a.52.52,0,0,0,0-1Z"/><path d="M18.53,22.32A1.77,1.77,0,0,1,20,21.61a1.7,1.7,0,0,1,1.21.41,2.16,2.16,0,0,1,.56,1.3h1a2.8,2.8,0,0,0-.85-1.85A2.69,2.69,0,0,0,20,20.8a2.89,2.89,0,0,0-1.59.43,2.78,2.78,0,0,0-1.07,1.22A4.3,4.3,0,0,0,17,24.3V25a3.86,3.86,0,0,0,.8,2.56,2.66,2.66,0,0,0,2.14,1,2.88,2.88,0,0,0,2-.65,2.82,2.82,0,0,0,.88-1.84h-1a2.06,2.06,0,0,1-.59,1.3,1.91,1.91,0,0,1-1.27.38A1.64,1.64,0,0,1,18.5,27,3.32,3.32,0,0,1,18,25.05v-.73A3.22,3.22,0,0,1,18.53,22.32Z"/><polygon points="24.14 20.9 24.14 28.44 25.14 28.44 25.14 25.89 26.06 24.93 28.73 28.44 29.92 28.44 26.72 24.23 29.68 20.9 28.48 20.9 25.14 24.63 25.14 20.9 24.14 20.9"/><polygon points="35.52 21.72 35.52 20.9 30.79 20.9 30.79 28.44 35.57 28.44 35.57 27.63 31.78 27.63 31.78 24.96 35.05 24.96 35.05 24.14 31.78 24.14 31.78 21.72 35.52 21.72"/><polygon points="39.7 28.44 39.7 21.72 42.12 21.72 42.12 20.9 36.29 20.9 36.29 21.72 38.71 21.72 38.71 28.44 39.7 28.44"/></svg>
